X: 11
T: When the Little Children Sleep.
C: Reinecke.
P: From the German.
B: "The Everyday Song Book", 1927
F: http://www.library.pitt.edu/happybirthday/pdf/The_Everyday_Song_Book.pdf
Z: 2015 John Chambers <jc:trillian.mit.edu>
M: 3/4
L: 1/8
K: D
% - - - - - - - - - - - - - - - - - - - - - - - - - - - - -
F G | A2 A2 (GA B) | A6 | F G A2 d2 | d4 c2 |
w: When the lit-tle chil-*dren sleep, Lit-tle stars are wak-ing,
E F G2 G2 | (3(FG A) G4 | c d e2 G2 | G4 F2 |
w: An-gels bright from heav-*en come, And, till morn is break-ing,
B B d2 B2 | A F A4 | B B d2 (cB) | "^rit."A F HA2 |
w: They will watch the live long night By their beds till* morn-ing light,
"^a tempo."D E | F2 F2 (3(EF G) | F4 d A | F3"rit." A (3(GF E) | HD4 |]
w: When the lit-tle chil-*dren sleep, Stars and an-gels watch* do keep.
% - - - - - - - - - - - - - - - - - - - - - - - - - - - - -
